X: 1
T: There's Nae Luck Aboot the Hoose
O: trad Scotland, England
R: hornpipe
B: RSCDS 10-10(a)
Z: 1997 by John Chambers <jc:trillian.mit.edu>
N: Johnson's Museum 1788, adapted from earlier tune "Up and war a' Willie" published by Oswald 1750.
M: 4/4
L: 1/8
K: G
(3def \
| "G"g>e d>B "C"c>d e>f | "G"g>e d>B "D7"A3 (3def \
| "G"g>e d>B "C"c>d e>g | "D7"d>c B>A "G"G2 :|
|: G>A \
| "G"B2 B>G "C"c2 c>A | "G"B2 B>G "D7"A2 G>A \
| "G"B2 B>G "C"c>d e>g | "D7"d>c B>A "G"G3 :|
%%center Book10/10101-Theres_Nae_Luck_Aboot_the_Hoose-1.abc

%%sep 1 1 500
%%sep 1 1 500

